X:423
T:Roderick D. MacDiarmid 
C:Joe Buchanan's Scottish Tome - Page 388.0
I:388 0
Z:Carl Allison
C:John Renton
R:March
L:1/8
M:2/4
K:D
e | "Am"A/>A/A/>B/ eA/>B/ | g/>f/e/<d/ eg | "G"B/>A/G/>B/ dB/>d/ | gf/<d/ "E7"ed/>B/ |
"Am"A/>A/A/>B/ eA/>B/ | g/>f/e/<d/ eg | "Am"a/>g/f/>e/ de/>g/ | eA A :|
B | "Am"A/<A/a "Em"a/g/e | "Am"e/>d/B/>d/ "Em"eg | "G"B/>A/G/>B/ dB/>d/ | gf/<d/ "E7"ed/>B/ |
"Am"A/<A/a "Em"a/<g/e | e/>d/B/>d/ "Em"eg | "Am"a/>g/f/>e/ "G"de/>g/ | "Am"eA AB |
"Am"A/<A/a a/>g/e | "Am"e/>d/B/>d/ eg | "G"B/>A/G/>B/ dB/>d/ | gf/>d/ "E7"ed/>B/ |
"Am"A/>A/A/>B/ eA/>B/ | g/>f/e/<d/ "Em"eg | "Am"a/>g/f/>e/ "G"de/>g/ | "Am"eA A |]
e | "Am"((3A/A/A/)e/<A/ "G"B/>A/G/>B/ | "Am"((3A/A/A/)e/<d/ eg | "G"B/<A/G d/>B/G | ed/>B/ "E7"de |
"Am"((3A/A/A/)e/<A/ "G"B/>A/G/>B/ | "Am"((3A/A/A/)e/<d/ "Em"eg | "Am"a/>g/f/>e/ "G"de/>g/ | "Am"eA A :|
g | "Am"aA/<A/ gA/<A/ | fe/<d/ eg | "G"BG/<G/ dG/<G/ | ed/<B/ "E7"de |
"Am"aA/<A/ gA/<A/ | "D"fe/<d/ "Em"eg | "Am"a/>g/f/>e/ "G"de/>g/ | "Am"eA Ag |
"Am"a/>A/A/<A/ g/>A/A/<A/ | fe/<d/ eg | "G"B/>G/G/<G/ "D"d/>G/G/<G/ | ed/<B/ "E7"de |
"Am"((3A/A/A/)e/<A/ "G"B/>A/G/>B/ | "Am"Ae/<d/ "Em"eg | "Am"a/>g/f/>e/ "G"de/>g/ | "Am"eA A |]
W:Errata: Changed to key of D vs A after listening to the tune.

